source/sprite/calendar.svg

<svg xmlns="http://www.w3.org/2000/svg" width="298.314" height="298.313">
  <path d="M172.708 157c-8.68 0-15.7 7.028-15.7 15.708 0 8.664 7.036 15.7 15.7 15.7s15.7-7.036 15.7-15.7c.002-8.68-7.02-15.71-15.7-15.71zm-47.103-15.694c8.668 0 15.7-7.033 15.7-15.7 0-8.675-7.032-15.7-15.7-15.7-8.666 0-15.7 7.025-15.7 15.7 0 8.667 7.034 15.7 15.7 15.7zm47.103-31.4c-8.68 0-15.7 7.025-15.7 15.7 0 8.667 7.02 15.7 15.7 15.7 8.664 0 15.7-7.033 15.7-15.7.002-8.675-7.02-15.7-15.7-15.7zM188.41 31.4h-78.504v31.402h78.504V31.4zm31.402 109.906c8.66 0 15.7-7.033 15.7-15.7 0-8.675-7.024-15.7-15.7-15.7-8.68 0-15.7 7.025-15.7 15.7 0 8.667 7.036 15.7 15.7 15.7zm0 47.103c8.66 0 15.7-7.04 15.7-15.705 0-8.68-7.024-15.7-15.7-15.7-8.68 0-15.7 7.02-15.7 15.7 0 8.664 7.036 15.7 15.7 15.7zm-94.207 0c8.668 0 15.7-7.04 15.7-15.705 0-8.68-7.024-15.71-15.7-15.71-8.674 0-15.7 7.03-15.7 15.71 0 8.664 7.034 15.7 15.7 15.7zm-47.1 47.1c8.665 0 15.7-7.04 15.7-15.7 0-8.68-7.035-15.7-15.7-15.7-8.675 0-15.702 7.02-15.702 15.7 0 8.66 7.034 15.7 15.7 15.7zM266.91 31.4h-15.695v31.402h15.696V266.91H31.406V62.803h15.7V31.4H31.4C14.06 31.4 0 45.455 0 62.803v204.1c0 17.353 14.06 31.41 31.402 31.41H266.91c17.345 0 31.402-14.058 31.402-31.41v-204.1c0-17.348-14.057-31.403-31.4-31.403zM78.505 188.41c8.666 0 15.7-7.038 15.7-15.702 0-8.68-7.034-15.71-15.7-15.71-8.674 0-15.7 7.03-15.7 15.71 0 8.664 7.033 15.7 15.7 15.7zm0-47.104c8.666 0 15.7-7.033 15.7-15.7 0-8.675-7.034-15.7-15.7-15.7-8.674 0-15.7 7.025-15.7 15.7 0 8.667 7.033 15.7 15.7 15.7zm47.1 94.207c8.67 0 15.702-7.04 15.702-15.7 0-8.68-7.033-15.702-15.7-15.702-8.667 0-15.7 7.025-15.7 15.705 0 8.66 7.033 15.7 15.7 15.7zm-47.1-172.71c8.666 0 15.7-7.033 15.7-15.7v-31.4C94.205 7.023 87.18 0 78.505 0c-8.667 0-15.7 7.025-15.7 15.7v31.4c0 8.67 7.033 15.703 15.7 15.703zm141.308 0c8.66 0 15.7-7.033 15.7-15.7v-31.4c0-8.678-7.04-15.703-15.7-15.703-8.68 0-15.7 7.025-15.7 15.7v31.4c0 8.67 7.036 15.703 15.7 15.703z"/>
</svg>

<?xml version="1.0" encoding="iso-8859-1"?>
<!-- Generator: Adobe Illustrator 16.0.0, SVG Export Plug-In . SVG Version: 6.00 Build 0)  -->
<!DOCTYPE svg PUBLIC "-//W3C//DTD SVG 1.1//EN" "http://www.w3.org/Graphics/SVG/1.1/DTD/svg11.dtd">
<svg version="1.1" id="Capa_1" xmlns="http://www.w3.org/2000/svg" xmlns:xlink="http://www.w3.org/1999/xlink" x="0px" y="0px"
	 width="298.314px" height="298.313px" viewBox="0 0 298.314 298.313" style="enable-background:new 0 0 298.314 298.313;"
	 xml:space="preserve">
<g>
	<g id="_x32_22._Calender">
		<g>
			<path d="M172.708,156.999L172.708,156.999c-8.681,0-15.701,7.029-15.701,15.709c0,8.664,7.037,15.701,15.701,15.701l0,0
				c8.664,0,15.701-7.037,15.701-15.701C188.41,164.028,181.388,156.999,172.708,156.999z M125.605,141.306
				c8.668,0,15.701-7.033,15.701-15.701c0-8.674-7.033-15.699-15.701-15.699c-8.666,0-15.699,7.025-15.699,15.699
				C109.906,134.273,116.939,141.306,125.605,141.306z M172.708,109.906L172.708,109.906c-8.681,0-15.701,7.025-15.701,15.699
				c0,8.668,7.021,15.701,15.701,15.701l0,0c8.664,0,15.701-7.033,15.701-15.701C188.41,116.931,181.388,109.906,172.708,109.906z
				 M188.41,31.4h-78.504v31.402h78.504V31.4z M219.812,141.306c8.66,0,15.701-7.033,15.701-15.701
				c0-8.674-7.025-15.699-15.701-15.699c-8.681,0-15.701,7.025-15.701,15.699C204.111,134.273,211.148,141.306,219.812,141.306z
				 M219.812,188.409c8.66,0,15.701-7.037,15.701-15.701c0-8.68-7.025-15.701-15.701-15.701c-8.681,0-15.701,7.021-15.701,15.701
				C204.111,181.372,211.148,188.409,219.812,188.409z M125.605,188.409c8.668,0,15.701-7.037,15.701-15.701
				c0-8.68-7.025-15.709-15.701-15.709c-8.674,0-15.699,7.029-15.699,15.709C109.906,181.372,116.939,188.409,125.605,188.409z
				 M78.504,235.513c8.666,0,15.701-7.041,15.701-15.701c0-8.68-7.035-15.701-15.701-15.701c-8.674,0-15.701,7.021-15.701,15.701
				C62.803,228.472,69.837,235.513,78.504,235.513z M266.911,31.4h-15.696v31.402h15.696v204.108H31.402V62.803h15.699V31.4H31.402
				C14.06,31.4,0,45.455,0,62.803v204.101c0,17.352,14.06,31.41,31.402,31.41h235.508c17.345,0,31.402-14.059,31.402-31.41V62.803
				C298.313,45.455,284.255,31.4,266.911,31.4z M78.504,188.409c8.666,0,15.701-7.037,15.701-15.701
				c0-8.68-7.035-15.709-15.701-15.709c-8.674,0-15.701,7.029-15.701,15.709C62.803,181.372,69.837,188.409,78.504,188.409z
				 M78.504,141.306c8.666,0,15.701-7.033,15.701-15.701c0-8.674-7.035-15.699-15.701-15.699c-8.674,0-15.701,7.025-15.701,15.699
				C62.803,134.273,69.837,141.306,78.504,141.306z M125.605,235.513c8.668,0,15.701-7.041,15.701-15.701
				c0-8.68-7.033-15.701-15.701-15.701c-8.666,0-15.699,7.021-15.699,15.701C109.906,228.472,116.939,235.513,125.605,235.513z
				 M78.504,62.803c8.666,0,15.701-7.033,15.701-15.701v-31.4C94.205,7.025,87.178,0,78.504,0c-8.667,0-15.701,7.025-15.701,15.701
				v31.4C62.803,55.77,69.837,62.803,78.504,62.803z M219.812,62.803c8.66,0,15.701-7.033,15.701-15.701v-31.4
				C235.513,7.025,228.472,0,219.812,0c-8.681,0-15.701,7.025-15.701,15.701v31.4C204.111,55.77,211.148,62.803,219.812,62.803z"/>
		</g>
	</g>
</g>
<g>
</g>
<g>
</g>
<g>
</g>
<g>
</g>
<g>
</g>
<g>
</g>
<g>
</g>
<g>
</g>
<g>
</g>
<g>
</g>
<g>
</g>
<g>
</g>
<g>
</g>
<g>
</g>
<g>
</g>
</svg>
